X:1
T:Title
%%score { ( 1 3 ) | ( 2 4 ) }
L:1/8
Q:1/4=100
M:4/4
K:Bb
V:1 treble nm="Grand Piano"
V:3 treble 
V:2 bass 
V:4 bass 
V:1
 [DF]2 [DF]>[_D=E] [DG]2 [=DF]2 | [Fd]2 [Fc]>[FB] B2 A2 | B2 [DB]>[B,G] =E2 C2 | F8 | %4
w: E.~A.~Casselberry * * * *||||
 [B,DF]2 [F,DF]>[G,_D=E] [DG]2 [=DF]2 | [Fd]2 [Fc]>[FB] B2 G2 | z4 d2 z2 | [DB]6 z2 | %8
w: ||||
 A2 _A>=A c2 A2 | c2 d>c [Ec]2 [DB]2 | [D=EB]2 [CEA]>[DEB] [Ed]2 [Ec]2 | c8 | %12
w: ||||
 [B,DF]2 [F,DF]>[G,_D=E] [DG]2 [=DF]2 | [Fd]2 [Fc]>[FB] B2 G2 | z4 d2 z2 |[M:8/4] [DB]8 z8 |] %16
w: ||||
V:2
 [B,,B,]2 [B,,F,]>[B,,G,] [B,,=E,]2 [B,,F,]2 | [B,,B,]2 [C,A,]>[D,B,] [F,DF]2 [F,CE]2 | %2
 [G,B,D]2 [G,,G,]>[G,,G,] [C,G,B,]2 [C,G,B,]2 | F,2- [F,-C]2 [F,-B,]2 [F,A,]2 | %4
 B,,2 B,,>B,, [B,,=E,]2 [B,,F,]2 | [B,,B,]2 [C,A,]>[D,_A,] [E,G,E]2 [E,B,_D]2 | %6
 [F,B,D]2 [G,B,D]>[^F,B,E] .[=F,B,F]2 [F,A,E]2 | [B,,B,]6 z2 | %8
 [F,CF]2 [F,=B,F]>[F,CF] [F,A,F]2 [F,CF]2 | [F,A,E]2 [F,G,F]>[F,A,E] [B,,B,]2 [B,,B,]2 | %10
 C,2 C,>C, [C,B,]2 [C,B,]2 | [A,E]2 z2 z4 | B,,2 B,,>B,, [B,,=E,]2 [B,,F,]2 | %13
 [B,,B,]2 [C,A,]>[D,_A,] [E,G,E]2 [E,B,_D]2 | [F,B,D]2 [G,B,D]>[^F,B,E] .[=F,B,F]2 [F,A,E]2 | %15
[M:8/4] [B,,B,]8 z8 |] %16
V:3
 x8 | x8 | x8 | z2 E2 D2 C2 | x8 | x8 | F2 B>c z G, c2 | x8 | x8 | x8 | x8 | z2 A2 G2 F2 | x8 | %13
 x8 | F2 B>c z G, c2 |[M:8/4] x16 |] %16
V:4
 x8 | x8 | x8 | A,2 z2 z4 | x8 | x8 | x8 | x8 | x8 | x8 | x8 | F,2- [F,-C]2 [F,-B,]2 [F,A,]2 | x8 | %13
 x8 | x8 |[M:8/4] x16 |] %16

